dist/images/index/vector1.svg

<svg width="137" height="137" viewBox="0 0 137 137" fill="none" xmlns="http://www.w3.org/2000/svg">
<path d="M0 113.582C7.39514 120.985 16.1811 126.851 25.8563 130.845C35.5314 134.838 45.9063 136.881 56.3885 136.857C66.8707 136.833 77.255 134.743 86.9485 130.705C96.6419 126.667 105.455 120.762 112.884 113.325C120.313 105.888 126.212 97.0659 130.246 87.3623C134.279 77.6586 136.367 67.2634 136.391 56.7702C136.415 46.2769 134.374 35.8911 130.385 26.2057C126.396 16.5204 120.536 7.72518 113.141 0.322243L88.2537 25.2358C96.6174 33.6082 101.301 44.9788 101.274 56.8463C101.247 68.7137 96.5114 80.1059 88.1096 88.5166C79.7078 96.9273 68.3276 101.668 56.4726 101.695C44.6177 101.722 33.259 97.0333 24.8954 88.6609L0 113.582Z" fill="#FF9513"/>
</svg>

<svg width="137" height="137" fill="none" xmlns="http://www.w3.org/2000/svg"><path d="M0 113.582a79.328 79.328 0 0025.856 17.263 79.55 79.55 0 0030.532 6.012 79.951 79.951 0 0030.56-6.152 80.318 80.318 0 0025.936-17.38 80.422 80.422 0 0017.362-25.963 80.195 80.195 0 006.145-30.592 79.776 79.776 0 00-6.006-30.564A79.412 79.412 0 00113.141.322L88.254 25.236a44.565 44.565 0 0113.02 31.61 44.977 44.977 0 01-13.164 31.67 44.881 44.881 0 01-31.637 13.179 44.471 44.471 0 01-31.578-13.034L0 113.582z" fill="#FF9513"/></svg>
